!!!!SEGMENT: 015-1a-BH-003.krn
!!!COM: F. Chopin
!!!OTL: 3me. Nocturne
!!!OPS: Op. 15
!!!PTL: Trois Nocturnes
!!!PPR: Breitkopf & Härtel
!!!PPP: Leipzig
!!!NIFC-rismID: 1001035843
!!!NIFC-shelfmark: PL-Wbfc 676/n
!!!OMD: Lento.
!!!OMD: [half-dot] = 60.
**kern	**kern	**dynam
*part1	*part1	*part1
*staff2	*staff1	*
*clefF4	*clefG2	*
*k[b-e-]	*k[b-e-]	*
*g:	*g:	*
*M3/4	*M3/4	*
*MM180	*MM180	*
!	!LO:TX:b:t=larguido e rubato.	!
!	!	!LO:DY:rj
4r	4dd^>	p
=1	=1	=1
*ped	*	*
(4d 4B- 4G	(2g\	.
4GG'<)	.	.
*Xped	*	*
4r	4b-	.
=2	=2	=2
*ped	*	*
(4e- 4c 4G	8aL\	.
.	8b-J\	<
4GG'<)	4g\	.
*Xped	*	*
4r	4a\	.
=3	=3	=3
*ped	*	*
(4d 4B- 4G	8b-L	.
.	8ccJ	.
4GG'<)	4dd	.
*Xped	*	*
4r	4gg	[
=4	=4	=4
*ped	*	*
4AA'<	[2.ff)	>
4e- 4c 4F	.	.
4r	.	]
=5	=5	=5
4AA'<	2.ff_	>
4e- 4c 4F	.	.
4r	.	.
=6	=6	=6
(4e- 4c 4F	(2.ff]	.
4AA'<)	.	.
*Xped	*	*
4r	.	.
=7	=7	=7
*ped	*	*
4BB-'</	2dd)	.
4d 4B- 4F	.	.
*Xped	*	*
4r	(4dd^<	.
!!LO:LB:g=original
=8	=8	=8
*^	*	*
4rbyy	4e-^< 4A^< 4G-X^<	2cc)	.
[2F^>	4BB-	.	.
.	4rBB	(4dd^<	.
=9	=9	=9	=9
*ped	*	*	*
[2.F]	4d/ 4B-/	2f)	.
.	4BB-'</	.	.
*Xped	*	*	*
.	4rBB	(4dd^<	.
=10	=10	=10	=10
4rbyy]	4e-^< 4A^< 4G-^<X^<	2cc)	.
[2F^>	4BB-	.	.
.	4rBB	(4dd	.
=11	=11	=11	=11
*ped	*	*	*
2F]	4d/ 4B-/	4b-)	.
.	4BB-'</	4r	.
*Xped	*	*	*
4reyy	4rBB	(4dd^<	.
*v	*v	*	*
=12	=12	=12
*ped	*	*
4c'> 4F#X'> 4D'>	4a\)	.
4DD'<	4r	.
*Xped	*	*
4r	(4dd^<	.
=13	=13	=13
*ped	*	*
(4B- 4D	2g\)	.
4GG'<)	.	.
*Xped	*	*
4r	(4b-	.
=14	=14	=14
*ped	*	*
(4e- 4c 4G	8aL/	<
.	8b-J/	.
4GG'<)	4g/	.
*Xped	*	*
4r	4a/	.
=15	=15	=15
*ped	*	*
(4d 4B- 4G	8b-L	.
.	8ccJ	.
4GG'<)	4dd	.
*Xped	*	*
4r	4gg	[
=16	=16	=16
*ped	*	*
4DD	[2.ff	f
4a 4f 4d 4A	.	.
4r	.	.
!!LO:LB:g=original
=17	=17	=17
4D'>	2.ff_)	.
4a 4f 4d 4A	.	.
4r	.	.
=18	=18	=18
(4a 4d 4A	2.ff_	.
4D'>)	.	.
*Xped	*	*
4r	.	.
=19	=19	=19
*ped	*	*
(4g#X 4d 4A	2ff]	.
4D'>)	.	.
*Xped	*	*
4r	(4ff^<	.
=20	=20	=20
*ped	*	*
(4gn 4c#X 4A	2een)	.
4D'>)	.	.
*Xped	*	*
4r	(4ff^<	.
=21	=21	=21
*ped	*	*
(4f 4d 4A	2a\)	.
4D'>)	.	.
*Xped	*	*
4r	(4ff^<	.
=22	=22	=22
*ped	*	*
(4g 4c#X 4A	2een)	.
4AA'>\)	.	.
*Xped	*	*
4r	(4ff^<	.
=23	=23	=23
!	!LO:TX:b:t=poco ritenuto.	!
.	.	.
*ped	*	*
(4f 4d 4A	4dd)	.
4D'>)	4r	.
*Xped	*	*
4r	(4ee-X^<	.
=24	=24	=24
*ped	*	*
4e- (4A 4F	4cc)	.
4F#X)	4r	.
*Xped	*	*
4r	(4dd^<	.
=25	=25	=25
!	!LO:TX:b:t= a Tempo.	!
.	.	.
*ped	*	*
(4d 4B- 4G	2g/)	.
4GG)	.	.
*Xped	*	*
4r	(4b-^<	.
!!LO:LB:g=original
=26	=26	=26
*ped	*	*
(4e- 4c 4G	8aL\	<
.	8b-J\	.
4GG'<)	4g\	.
*Xped	*	*
4r	4a\	.
=27	=27	=27
*ped	*	*
(4d 4B- 4G	8b-L	.
.	8ccJ	.
4GG'<)	4dd	.
*Xped	*	*
4r	4gg	[
=28	=28	=28
*ped	*	*
4AA'<	[2.ff	>
4e- 4c 4F	.	]
4r	.	.
=29	=29	=29
4AA'<	2.ff_	.
4e- 4c 4F	.	.
4r	.	.
=30	=30	=30
4e- 4c 4F	(2.ff])	.
4AA'<	.	.
*Xped	*	*
4r	.	.
=31	=31	=31
*ped	*	*
4BB-/	2dd))	.
4d 4B- 4F	.	.
4r	(4dd^<	.
=32	=32	=32
*^	*	*
4rbyy	(>4e-^< 4A^< 4G-X^<	2cc)	.
[2F	4BB-)	.	.
*Xped	*	*	*
.	4rBB	(>4dd^<	.
=33	=33	=33	=33
*ped	*	*	*
2.F]	4d/ 4B-/	2f)	.
.	4BB-'</	.	.
.	4rBB	(4dd^<	.
=34	=34	=34	=34
4ryy	4e- 4A 4G-X	2cc)	.
[2F	4BB-	.	.
.	4rBB	(4dd^<	.
!!LO:LB:g=original
=35	=35	=35	=35
2F]	4d/ 4B-/	4b-)	.
!	!	!LO:TX:a:t=P:note-head-side tuplet number:problem	!
!	!	!LO:TX:t= leggieriss.	!
.	4BB-'</	12r	.
!	!	!LO:TX:a:t=P:problem:'6' instead of '3'	!
.	.	(12dd^<L	.
.	.	12ddJ	.
4r	4rAAAyy	12ffL	.
.	.	12ee-	.
.	.	12ddJ	.
*v	*v	*	*
=36	=36	=36
*ped	*	*
4c 4F#X 4D	4a)\	.
4DD'<	12r	.
!	!LO:TX:a:t=P:problem:'6' instead of '3'	!
.	(12dd^<L	.
.	12ddJ	.
.	16qqdd/	.
4r	12ffL	.
*Xped	*	*
.	12ee-	.
.	12ddJ	.
*	*tuplet	*
=37	=37	=37
*ped	*	*
(4B- 4D 4GG	2g)/	.
4GGG'<	.	.
*Xped	*	*
4r)	(4b-^<	.
=38	=38	=38
*ped	*	*
(4e- 4c 4G	8aL\	<
.	8b-J\	.
4GG'<)	4g\	.
*Xped	*	*
4r	4a\	.
=39	=39	=39
*ped	*	*
(4d 4B- 4G	8b-L	.
.	8ccJ	.
4GG'<)	4dd	.
*Xped	*	*
4r	4gg	[
=40	=40	=40
*ped	*	*
4DD	[2.ff	f
4a 4f 4d 4A	.	.
4r	.	.
=41	=41	=41
4D'>	2.ff_	.
4a 4f 4d 4A	.	>
4r	.	.
=42	=42	=42
(4a 4d 4A	2.ff_)	.
4D'>)	.	.
*Xped	*	*
4r	.	.
=43	=43	=43
*ped	*	*
(4g#X 4d 4A	2ff]	.
4D'>)	.	.
*Xped	*	*
4r	(4ff	.
!!LO:LB:g=original
=44	=44	=44
*ped	*	*
(4gn 4c#X 4A	2een)	.
4D'>)	.	.
*Xped	*	*
4r	(4ff^<	.
=45	=45	=45
(4f 4d 4A	2a\)	.
4D'>)	.	.
4r	(4ff^<	.
=46	=46	=46
*ped	*	*
(4g 4c#X 4A	4een)	.
4AA'>\)	4r	.
*Xped	*	*
4r	(4ff^<	.
=47	=47	=47
*ped	*	*
(4f 4d 4A	[2.dd^<)	.
4D'>)	.	.
*Xped	*	*
4r	.	.
=48	=48	=48
*ped	*	*
(4f 4d 4A	[2.dd)]	.
4D'>)	.	>
*Xped	*	*
4r	.	.
=49	=49	=49
!	!LO:TX:b:t= ritenuto.	!
(4f 4d 4A	2.dd_	.
4D'>)	.	.
4r	.	.
=50	=50	=50
(4f 4A	2.dd]	.
*Xped	*	*
2D)	.	.
=51	=51	=51
!	!LO:TX:a:t=a Tempo.	!
.	.	.
!	!LO:TX:b:t= sotto voce.	!
*ped	*	*
4c 4A 4F#X 4D#X	(2cc^<	.
!	!	!LO:DY:b=2
4DD#X'<	.	fz
4r	4cc	.
=52	=52	=52
4c 4A 4F#X 4D#X	8bnL\	.
.	8aJ\	.
4DD#y'<	4g\	.
4r	4f#X\)	.
!!LO:PB:g=original
=53	=53	=53
4c 4A 4F#X 4D#X	2cc	.
4DD#	.	.
*Xped	*	*
4r	(4cc	<
=54	=54	=54
*ped	*	*
(4Bn 4Gn 4D#X	[2.bn)	[
!	!	!LO:DY:b=2
4DD#X'<)	.	fz
*Xped	*	*
4r	.	.
=55	=55	=55
*ped	*	*
(4Bn 4G 4Dn	2bnX)]	.
4DDn'<)	.	.
4r	4b	.
=56	=56	=56
(4B- 4G 4D	(<8aL/	>
.	8gJ/	.
4DD'<)	4f#X/	.
*Xped	*	*
4r	4en)/	]
=57	=57	=57
*ped	*	*
(4c 4F#X 4D	(8dL\	<
.	8ee-J\	.
4DD'<)	4dd\	.
*Xped	*	*
4r	4a\)	[
=58	=58	=58
*ped	*	*
(4Bn 4F#X 4D	[2.bn	<
4DD'<)	.	[
*Xped	*	*
4r	.	.
=59	=59	=59
*ped	*	*
(4Bn 4G#X 4E#X 4D	2bnX]	.
4DD'<)	.	.
4r	(4bny	>
!!LO:LB:g=original
=60	=60	=60
4Bn 4G#X 4E#X 4D	8a#XL/	.
.	8g#XJ/	]
4DD'<	4f#/	.
4r	4e#X/	.
=61	=61	=61
.	8qe#X/	.
4Bn 4G#X 4E#X 4D	2bn^<)	.
4DD'<	.	.
*Xped	*	*
4r	(4b/	.
=62	=62	=62
*ped	*	*
(4A#X 4E#X 4D	[2.a#X/)	<
4DD'<)	.	.
4r	.	[
=63	=63	=63
!	!LO:TX:b:t= sostenuto.	!
(4A#X 4F#X 4C#X	(<2a#X/]	.
4CC#X'<)	.	.
4r	4a#/	.
=64	=64	=64
(4A# 4F#X 4C#X	8g#XL/	.
.	8f#XJ/	.
4CC#X'<)	4e#X/	.
*Xped	*	*
4r	4d#X/)	.
=65	=65	=65
*ped	*	*
(4Bn 4E#X 4C#X	(<8c#XL/	<
.	8dd#XJ/	.
4CC#X'<)	4cc#y/	[
*Xped	*	*
4r	4g#X/	<
=66	=66	=66
*ped	*	*
(4A# 4F#X 4C#X	[<2.a#X/)	[
4CC#X'<)	.	.
*Xped	*	*
4r	.	.
!!LO:LB:g=original
=67	=67	=67
*ped	*	*
(4A#X 4F#X 4C#X	(2a#X]	.
4CC#X'<)	.	>
*Xped	*	*
4r	8bnL	.
.	8a#J	.
=68	=68	=68
*ped	*	*
(4A#X 4F#X 4C#X	8g#XL	.
.	8f#XJ	.
4CC#X'<)	4e#X	]
*Xped	*	*
4r	4d#X)	.
=69	=69	=69
*	*^	*
*ped	*	*	*
4A#X 4F##X 4C#X	(8enL	4en^<	.
.	8eenJ	.	.
!	!LO:TX:a:t=P:dynamics with extention lines:problem	!	!
!	!	!	!LO:HP:b:t=cresc.
4CC#X'<	2dd#X)	4rAyy	<
*Xped	*	*	*
4r	.	4d#X'>	.
=70	=70	=70	=70
*ped	*	*	*
4Bn 4G#X 4C#X	(8f#XL	4f#^<	.
.	8ff#J	.	.
4CC#X'<	2ee#X)	4rcyy	.
*Xped	*	*	*
4r	.	4e#X'>	.
=71	=71	=71	=71
*ped	*	*	*
4en 4c#X 4A#X	(8g#XL	4g#^<	.
.	8gg#J	.	.
4CC#X'<	2ff##X)	4rAyy	.
*Xped	*	*	*
4r	.	4f##X'>	.
=72	=72	=72	=72
*ped	*	*	*
!	!LO:TX:a:t=ac--ce-le-rando.:dur=6q:ext=ud:problem:text with extention lines	!	!
4g#X 4d#X 4Bn	(8eenL	4een^<	.
.	8eeenJ	.	.
4C#X'< 4CC#X'<	2ddd#X)	4rAyy	.
*Xped	*	*	*
4r	.	4dd#X'>	.
=73	=73	=73	=73
*ped	*	*	*
4dn 4Bn 4G#X	(8f#XL	4f#^<	.
.	8ff#J	.	.
4C#X'< 4CC#X'<	2ee#X)	4rcyy	.
*Xped	*	*	*
4r	.	4e#X'>	.
!!LO:LB:g=original
=74	=74	=74	=74
*ped	*	*	*
4f#X 4c#X 4A#X	(8ddnL	4ddn^<	.
.	8dddnJ	.	.
4C#X'< 4CC#X'<	2ccc#X)	4rcyy	.
*Xped	*	*	*
4r	.	4cc#X	.
=75	=75	=75	=75
*ped	*	*	*
4f#X 4d#X 4An	8cc#XL	4cc#^<	.
.	8ccc#J	.	.
!LO:TX:b:t=P:coll' ottava mark:problem	!	!	!
4CC#X	2bb#X	4rcyy	.
4r	.	4b#X	[
=76	=76	=76	=76
4a 4f#X 4d#X 4c 4A	8ee#XL	4ee#^<	.
.	8eee#J	.	.
!LO:TX:b:t=P:coll' ottava mark:problem	!	!	!
4CC#X	2ddd#X	4rcyy	.
*Xped	*	*	*
4r	.	4dd#X'>	.
*clefG2	*	*	*
*	*v	*v	*
=77	=77	=77
*	*8va	*
(4dd#X 4a	(4fff#X 4cccn 4ff#X	>
4ddn 4g#X)	4bbn\ 4ffn\)	]
(<4cc/ 4f#X/	(<4eee-X/ 4aa/ 4ee-X/	.
=78	=78	=78
4bn/ 4fn/)	4gg#X/ 4dd/)	.
(4a/ 4e-X/	(<4ccc/ 4ff#X/ 4cc/	.
4g#X/ 4d/)	4ffn/ 4bn/)	.
!	!LO:TX:a:t= loco.	!
*	*X8va	*
=79	=79	=79
!	!LO:TX:b:t= ritenuto.	!
!	!LO:TX:a:t=loco.	!
!	!	!LO:DY:b=2
!	!	!LO:DY:rj
(2f# 2B#X	(2aa 2dd#X 2a	fz
4e#X 4c#X)	4gg#X 4ee#X 4g#X)	>
*clefF4	*	*
=80	=80	=80
(8C#XL	2.rdd	.
8F#XJ)	.	.
*ped	*	*
4E#X'>	.	.
*Xped	*	*
4CC#X'<	.	.
!!LO:LB:g=original
=81	=81	=81
(2d 2A	(2ff#X 2b#X 2f#X	>
4c#X 4G#X)	4ee#X\ 4cc#X\ 4e#X\)	]
=82	=82	=82
!LO:TX:a:t= rall.	!	!
(8C#XL	2.rdd	.
8F#XJ)	.	.
4E#X'>	.	.
*ped	*	*
4CC#X'<	.	.
*Xped	*	*
=83	=83	=83
!	!	!LO:HP:a
(2B#X 2F#X	(2dd 2a 2d	>
4c#X 4E#X)	4cc#X 4g#X)	]
=84	=84	=84
(8C#XL	2.rdd	.
8F#XJ)	.	.
*ped	*	*
4E#X'>	.	.
*Xped	*	*
4GG#X'<	.	.
=85	=85	=85
2.CC#X	2.rdd	pp
=86	=86	=86
(2.CC#X	2.rdd	.
=87	=87	=87
2.CC#X	2.rdd	.
=88	=88	=88
!	!LO:TX:t=a Tempo.	!
2DD-X	2.r	.
4CCn)	.	.
=89	=89	=89
!	!LO:TX:a:t= religioso.	!
!	!	!LO:DY:rj
(2.CC	(2ccn 2a 2en	p>
.	4a 4eny 4c	]
=90	=90	=90
2DD)	2f 2d 2A	<
4GG	4b- 4g 4d)	[
!!LO:LB:g=original
=91	=91	=91
*	*^	*
!LO:TX:b:t= sempre legato.	!	!	!
2.C/	(>4a	2.en 2.c	.
.	4g	.	.
.	4a	.	.
*	*v	*v	*
=92	=92	=92
4D	2f 2d 2A	.
4D	.	.
4C\	4g 4en 4c)	.
=93	=93	=93
4F	(>2a 2f 2c	<
4F	.	.
!	!LO:TX:a:t=P:there is a blur above 4cc that could be covering note 4ee-:problem	!
4En	4cc 4g 4c	.
=94	=94	=94
4A	2cc 2a 2en	.
4A	.	.
4D	4dd 4a 4f	.
=95	=95	=95
4G	2dd 2b- 2g	.
4G	.	.
4C/	4een 4cc 4g	[
=96	=96	=96
4F'>	2.ff 2.cc 2.a)	.
(4FF	.	.
4EEn	.	.
=97	=97	=97
4DD	(4ff 4dd 4a	>
4EE-	4een 4bn 4g#X	.
!!!SIC@EN: 4EE- instead of 4EEn
4AA)	4cc/ 4a/ 4eny/	.
=98	=98	=98
2DD	2dd\ 2a\ 2f\	.
4AA	4cc\ 4a\ 4en\)	]
=99	=99	=99
4DD	(4dd/ 4a/ /4f	>
4AA	4cc/ 4a/ 4en/	.
4D/	4a/ 4f/ 4d/	]
!!LO:PB:g=original
=100	=100	=100
!	!LO:TX:a:t=P:on this page slur is above notes:problem	!
2GG	2b- 2g 2d	>
4D/	4a 4f 4d)	]
=101	=101	=101
4GG	(>4b- 4g 4d	>
4AA	4a 4en 4c#X	.
4D\	4f 4d 4A	]
=102	=102	=102
2C\	2g 2en 2c	<
4F\	4a 4f 4c	[
=103	=103	=103
(<4GG	4b- 4g 4d	<
4AA	4a 4en 4c#X	.
4GG	4b- 4g 4d	.
=104	=104	=104
*	*^	*
4AA	4a 4en 4c#X	4rFyy	.
4BB-	(2g^>)	4d	.
4C)	.	[4eny	[
*	*v	*v	*
=105	=105	=105
2.CC	2cc 2a 2enX]	.
.	4a 4eny 4c	.
=106	=106	=106
2DD	2f 2d 2A	<
4GG	4b- 4g 4d	[
=107	=107	=107
*	*^	*
2.C	4a^>	2.en 2.c	.
.	4g	.	.
.	4a	.	.
*	*v	*v	*
=108	=108	=108
4D/	2f 2d 2A	.
4D/	.	.
4C	4g 4en 4c)	.
!!LO:LB:g=original
=109	=109	=109
4F	(>2a 2f 2c	<
4F	.	.
4En	4cc 4g 4c	.
=110	=110	=110
4A	2cc 2a 2en	.
4A	.	.
4D	4dd 4a 4f	.
=111	=111	=111
4G	2dd 2b- 2g	.
4G	.	.
4C/	4een 4cc 4g	.
=112	=112	=112
4F	2.ff 2.cc 2.a)	[
4FF	.	.
4EEn	.	.
=113	=113	=113
4DD	(4ff 4dd 4a	>
4EE-	4een 4bn 4g#X	.
!!!SIC@EN: 4EE- instead of 4EEn
4AA	4cc/ 4a/ 4eny/	.
=114	=114	=114
2DD	2dd/ 2a/ 2f/	.
4AA	4cc/ 4a/ 4en/)	]
=115	=115	=115
4DD	(4dd 4a 4f	>
4AA	4cc 4a 4en	.
4D\	4a 4f 4d	]
=116	=116	=116
2GG	2b-^< 2g^< 2d^<	.
4D\	4a 4f 4d)	.
=117	=117	=117
4GG	(4b-^< 4g^< 4d^<	.
4AA	4a 4en 4c#X	.
4D\	4f 4d 4A	.
!!LO:LB:g=original
=118	=118	=118
2C\	2g^< 2en^< 2c^<	.
4F	4a 4f 4c	<
=119	=119	=119
4GG	4b- 4g 4d	.
4AA	4a 4en 4c#X	.
4GG	4b- 4g 4d)	[
=120	=120	=120
2C	2g 2en 2c	>
4FF	4a 4f 4c	]
=121	=121	=121
*^	*^	*
!	!	!	!	!LO:DY:rj
[2.c^>	2rBByy	[<2.cc	2rcyy	fz
!	!LO:TX:b:t=P:the slur should be under 2.c:problem	!	!	!
.	(>4F	.	(>4dd 4a 4f	<
=122	=122	=122	=122	=122
2c]	4C)	2cc]	4een'> 4g'> 4en'>)	.
.	4C'>	.	4eeny'> 4g'> 4eny'>	[
4reyy	4r	4rcccyy	4r	.
=123	=123	=123	=123	=123
*	*	*	*	*^
!	!	!	!	!LO:DY:a	!
!	!	!	!	!LO:DY:rj	!LO:DY:rj
!	!	!LO:TX:a:t=P:the tie looks like there were two slurs, first from 2.a to 4f and then from 4f to 2a:problem	!	!	!
[2.A^>	2rGGyy	[<2.a^>	2rFyy	fz	fz
!	!LO:TX:t=P:the slur should be under 2.A:problem	!	!	!	!
.	(>4D	.	(>4bn 4f 4d	<	.
*	*	*	*	*v	*v
=124	=124	=124	=124	=124
2A]	4AA'>)	2a]	4cc'> 4en'> 4c'>)	.
.	4AA'>	.	4cc'> 4eny'> 4c'>	[
4reyy	4r	4rcccyy	4r	.
=125	=125	=125	=125	=125
*	*	*	*	*^
(8.cL	2rGGyy	4ryy	(8.ccL	.	.
16dJk)	.	.	16ddJ)	.	.
!	!	!	!	!LO:DY:a	!
!	!	!	!	!LO:DY:rj	!LO:DY:rj
[2c^>)	.	[<2cc	4ryy	fz	fz
!	!LO:TX:t=P:the slur should be under 2c:problem	!	!	!	!
.	(>4F	.	(>4dd 4a 4f	<	.
*	*	*	*	*v	*v
=126	=126	=126	=126	=126
2c]	4C'>)	2cc]	4een'> 4g'> 4en'>)	.
.	4C'>	.	4eeny 4g 4eny	[
4B-	[4rBB	4b-^<	[4rAyy	.
!!LO:LB:g=original
=127	=127	=127	=127	=127
8.AL/	2rGGyy]	4ryy	8.a\L	.
16B-Jk/	.	.	16b-\Jk	.
!	!	!	!	!LO:DY:a
!	!	!	!	!LO:DY:rj
[2A	.	[<2an^>	4ryy	fz
!	!LO:TX:b:t=P:the slur should be under the tie:problem	!	!	!
.	(>4D	.	(>4bn 4f 4d	<
=128	=128	=128	=128	=128
2A]	4AA'>)	2a]	4cc'> 4en'> 4c'>)	.
.	4AA'>	.	4cc'> 4eny'> 4c'>	[
4G	[4rGG	(>4g^<\	[4rAyy	.
=129	=129	=129	=129	=129
!	!	!	!	!LO:DY:a
!	!	!	!	!LO:DY:rj
[2.F	2rGGyy]	[<2.f)	2rcyy]	fz
.	(4BB-	.	(>4g 4d 4B-	.
=130	=130	=130	=130	=130
(2F]	2AA)	2f]	2a 2c#X 2A)	.
4Eny)	[4rGG	4a^> 4en^>	[4rFyy	.
=131	=131	=131	=131	=131
8.FL/	2rEEyy]	8.fL	2rAyy]	.
16GJk/	.	16gJk	.	.
!	!	!	!	!LO:DY:a
[2F	.	2f^>	.	fz
.	(<4BB-	.	(>4g 4d 4B-	<
=132	=132	=132	=132	=132
(2F]	2AA)	(<2f	2a 2c#X 2A)	[
[4En)	4rEE	4en)	4rAyy	.
*v	*v	*	*	*
*	*v	*v	*
=133	=133	=133
*^	*	*
*	*^	*	*
!	!	!	!	!LO:DY:rj
2rcyy]	[2.D/	2rAAAyy	[2.d^<	fz
4A 4F#X	.	4DD\	.	.
*	*v	*v	*	*
=134	=134	=134	=134
!	!	!	!LO:DY:rj
2B- 2G	[[2D] 2GG\	2.d_	pp
4A 4F#X	4DD\	.	.
=135	=135	=135	=135
2ryy	2D]] 2GG	2d] 2B-< 2G<	<
4rcyy	4C 4CC	4en 4c 4G<	[
*v	*v	*	*
!!LO:LB:g=original
=136	=136	=136
2.C\ 2.FF\	2.f 2.c 2.A<	.
=137	=137	=137
*^	*^	*
!	!	!	!	!LO:DY:rj
[2.c^>	2rGGyy	2.cc^	2rcyy	fz
!	!LO:TX:b:t=P:the slur should be under the tie:problem	!	!	!
.	(>4F	.	(>4dd 4a 4f	<
=138	=138	=138	=138	=138
2c]	4C)	2cc)	4een'> 4g'> 4en'>)	[
.	4C	.	4eeny 4g 4eny	.
4rcyy	4r	4raayy	4r	.
=139	=139	=139	=139	=139
!	!	!	!	!LO:DY:rj
[2.A	2rGGyy	[<2.a^<	2rcyy	fz
!	!LO:TX:b:t=P:the slur should be under the tie:problem	!	!	!
.	(>4D	.	(>4bn 4f 4d	<
=140	=140	=140	=140	=140
2A]	4AA'>)	2a])	4cc'> 4en'> 4c'>)	[
.	4AA'>	.	4cc'> 4eny'> 4c'>	.
4reyy	4r	4rgggyy	4r	.
=141	=141	=141	=141	=141
8.cL/	2rCCyy	4ryy	8.ccL	.
16dJk/	.	.	16ddJk	.
!	!	!	!	!LO:DY:rj
[2c	.	[>2cc^<	4ryy	fz
!	!LO:TX:t=P:the slur should be under the tie:problem	!	!	!
.	(>4F	.	(>4dd 4a 4f	<
=142	=142	=142	=142	=142
2c]	4C)	2cc]	4een'> 4g'> 4en'>)	[
.	4C	.	4eeny 4g 4eny	.
4B-	[4rBB	4ryy	4b-	[
=143	=143	=143	=143	=143
8.AL/	2rGGyy]	4ryy	8.a\L	.
16B-Jk/	.	.	16b-\Jk	.
!	!	!	!	!LO:DY:rj
[2A	.	[<2a^<	4ryy	fz
!	!LO:TX:t=P:the slur should be under the tie:problem	!	!	!
.	(>4D	.	(>4bn 4f 4d	<
=144	=144	=144	=144	=144
2A]	4AA'>)	2a]	4cc'> 4en'> 4c'>)	.
.	4AA'>	.	4cc'> 4eny'> 4c'>	[
4ryy	4G	4g^<	[4rcyy	.
!!LO:LB:g=original
=145	=145	=145	=145	=145
[2.F	2rEEyy]	[<2.f	2rcyy]	fz
.	4BB-	.	(>4g 4d 4B-	.
=146	=146	=146	=146	=146
2F]	2AA	2f])	2a 2c#X 2A	.
4ryy	4En	4en	[4rFyy	.
=147	=147	=147	=147	=147
8.FL/	2rEEyy]	8.fL	2rAyy]	.
16GJk/	.	16gJk	.	.
!	!	!	!	!LO:DY:a
!	!	!	!	!LO:DY:rj
[2F	.	[<2f	.	fz
.	4BB-	.	4g 4d 4G	.
=148	=148	=148	=148	=148
2F]	2AA	2f]	2a 2c#X 2A	.
[4En/	4rEEyy	4en	4rAyy	.
*v	*v	*	*	*
*	*v	*v	*
=149	=149	=149
*^	*	*
*	*^	*	*
!	!	!	!	!LO:DY:a
!	!	!	!	!LO:DY:rj
2rcyy]	2.D/	2rAAAyy	[2.d^>	fz
!	!	!	!LO:TX:a:t=ritenuto.	!
.	.	.	.	.
4A 4F#X	.	(4DD\	.	.
*	*v	*v	*	*
=150	=150	=150	=150
2D\ 2GG\	2ryy	(>2d] 2B-< 2G<	.
4C\ 4CC\	4ryy	4e- 4c< 4G<	.
*v	*v	*	*
=151	=151	=151
!	!	!LO:DY:rj
2D\ 2DD\	2d 2A< 2G<	pp
4D\ 4DD\	4d 4A< 4F#<	<
=152	=152	=152
2.GG\ 2.GGG;<\)	2.d 2.Bn< 2.G< 2.D<;)	[>]
!LO:TX:b:t= Fine.	!	!
!!LO:PB:g=original
==	==	==
*-	*-	*-
!!title: @{OTL}; @{OPS} @{ONM} publisher: @{PPR}
!!!RDF**kern: > = above
!!!RDF**kern: < = below
!!!RDF**dynam: > = dim. fontstyle = "normal"
!!!ENC: Jędrzej Mróz
!!!END: 2018-07-12
!!!EED: Emilia Ziętek
!!!EST: revision finished 2018-07-14
!!!EED2: Zofia Niedbalska
!!!EST2: revision finished 2019-08-28
!!!rism-genre: Nocturne
!!!rism-key: G minor
!!!rism-opus: op. 15, no. 3
!!!rism-title: Nocturne in G minor op. 15, no. 3
!!!rism-permalink: https://opac.rism.info/search?id=1001035843&View=rism
!!!rism-773a-OPR: 1001035840
!!!rism-parent-permalink: https://opac.rism.info/search?id=1001035840&View=rism
